X:1
T:La Traviata
T:La Traviata
T:G. VERDI
T:Ah! Fors'è lui che l'anima
T:by Mutopia - Scritto con MuseScore, un software libero e gratuito: http://musescore.org/it
C:G. VERDI
Z:by Mutopia - Scritto con MuseScore, un software libero e gratuito: http://musescore.org/it
L:1/8
Q:1/4=66
M:3/8
K:C
V:1 treble nm="Mandolino" snm="Mnd."
V:1
"^Andantino"!p! .f.e.c | (A2 a) | (f2 a) |!<(! e3 | (3(d/!<)!e/f/) ag |{gf} (e2 c') | %6
!>(! (3(B/c/d/) ee!>)! | A/c/4B/4 A z | .f.e.c | (A2 a) | (f2 a) |!<(! e3 | (3(d/!<)!e/f/) ag | %13
{gf} (e2 c') |!>(! (3(B/c/d/) ee!>)! | A/c/4B/4 A z |!pp! (3(A/^G/A/) AB | c>dc | %18
"_cresc." (3(c/B/c/) cd | e>fe |!f! (3(e/^d/e/) e^f | ^g>^fe |!pp! (3(e/^d/e/)!<(! e^f!<)! | ^g3 || %24
[K:A]"^espressivo"!p! (a2 g/>f/) | (g2 f/>e/) | (cdB) | (c>BA) | (a2 g/>f/) | (g2 f/>e/) | %30
 (c>d) (3(d/c/B/) | (c2 A) | =fff | (e2 A) |!<(! =ff/f/f/f/!<)! |"_cresc." (e2 a) | %36
 (c'b) (3(a/g/f/) | (fe) (3(e/a/c/) | (fe) (3(c/d/B/)!dacoda! | A z z | (3(E/G/B/) e z | %41
 (3(E/A/=c/) e z | (3(E/G/!>(!B/) e!>)!E |!p! [=CEA] z [CEA] | [=CEA] z [CEA]!D.C.! |] %45
[M:3/8]O A z (3(g/f/g/) | ae (3(g/f/g/) | a2 z | %48
 ee/g/"^Cad. ad lib."b/a/ g/f/^e/f/d/B/^A<!fermata!f=e/ | =A z (3(a/a/a/) | a[Eca][Eca] | %51
 [Eca]2 !fermata!z |] %52

